X:18
T:The Swallowtail Jig
M:6/8
Q:3/8=120
R:jig
K:EDor
F|"Em"GEE BEE|GEG BAG|"D"FDD ADD|dcd AGF|
"Em"GEE BEE|GEG B2c|"D"dcd AGF| "Em"GEE E2:|
|:F|Bcd e2f|e2f edB|Bcd e2f|edB "D"d3|
Bcd "Em"e2f|e2f edB|"D"dcd AGF| "Em"GEE E2:|
%%newpage
